X:60
T:Jig y Ffidlwr
M:6/4
L:1/4
Q:200
K:D
|: D E F G A B | A d A F>E D | G>F E F A G | F D D D3 :|
|: B c d B c d | B>c d B>A G | A>B A A>B A | A d A F2 E |
D E F G A B| A d A F>E D | G>F E F A G | F D D D3 :|
